!!!!SEGMENT: pl-wnifc--2277-n--002_stefani-jan--polka.krn
!!!cenid: 18xx:3898
!!!COM: Stefani, Jan
!!!COM-rismID: pe30012827
!!!CDT: ~1746-1829/02/23
!!!CNT: Polish
!!!OTL: Polka
!!!PDT:
!!!AGN:
!!!SMS-siglum: PL-Wnifc
!!!SMS-shelfmark: 2277/n
!!!SMS-shelfwork: 002 W
!!!SMS-variant:
!!!SMS-altvar:
!!!NIFC-rismSourceID: 1001155786
!!!NIFC-islandoraID: nifc:211877
!!!URL-pdf-islandora: https://repozytorium.nifc.pl/islandora/object/nifc%3A211877/datastream/PDF/view
!!!URL-scan: https://polish.musicsources.pl/pl/lokalizacje/galeria/druki-muzyczne/16808 @EN{Scan on Polish Music Herritage in Open Access Website} @PL{Skany w portalu Dziedzictwo Muzyki Polskiej w otwartym dostępie}
!!!ONB-nifc:
!!!AIN: 2 piano
!!!key: B-
**kern	**kern	**dynam
*part2	*part1	*part1
*staff2	*staff1	*
*I"Forte=piano	*I"Forte=piano	*
*I'pf	*I'pf	*
*ICklav	*ICklav	*
*Ipiano	*Ipiano	*
*clefF4	*clefG2	*
*k[b-e-]	*k[b-e-]	*
*B-:	*B-:	*
*M2/4	*M2/4	*
=1	=1	=1
8BBB-/ 8BB-	8b-\ 8dd	f
8BB-\L 8D 8F	4dd^<\ 4ff	.
8BB-\ 8D 8F	.	.
8BB-\J 8D 8F	(16cc\LL 16ee-	.
.	16b-\JJ) 16dd	.
=2	=2	=2
.	(8qb-/ 8qdd	.
*^	*	*
4FF/	8FF\L	8a/L) 8cc	.
.	8C\J 8F	8g#X|/J 8bn	.
4FF/	8FF\L	4a/ 4cc	.
.	8C\J 8F	.	.
=3	=3	=3	=3
!	!LO:N:vis=2	!	!
2FF/	8FF\L	8cc|\ 8ee-	.
.	8C\ 8F	4ee-|^<\ 4gg	.
.	8C\ 8F	.	.
.	8C\J 8F	(16dd\LL 16ff	.
.	.	16cc\JJ) 16ee-	.
=4	=4	=4	=4
.	.	(8qcc/ 8qee-	.
4BB-/	8BB-\L	8b-\L) 8dd	.
.	8D\J 8F	8a|\J 8cc	.
4BB-/	8BB-\L	4b-|\ 4dd	.
.	8D\J 8F	.	.
*v	*v	*	*
=5	=5	=5
8BBB-/ 8BB-	8b-\ 8dd	.
8BB-\L 8D 8F	4dd\ 4ff	.
8BB-\ 8D 8F	.	.
8BB-\J 8D 8F	(16cc\LL 16ee-	.
.	16b-\JJ) 16dd	.
=6	=6	=6
.	(8qb-/ (8qdd	.
*^	*	*
4E-\	8FF\L	8a\L) 8cc)	.
.	8C\J 8F	8g#X'\J 8bn	.
4FF/	8FF\L	4a'\ 4cc	.
.	8C\J 8E- 8F	.	.
=7	=7	=7	=7
*	*	*^	*
!	!LO:N:vis=2	!	!	!
2FF/	8FF\L	8cc'/L	8a\	.
.	8C\ 8E- 8F	(8gg/	4a\	.
.	8C\ 8E- 8F	8ff/)	.	.
.	8C\J 8E- 8F	8a'/J	8a\	.
*v	*v	*	*	*
*	*v	*v	*
=8	=8	=8
8BB-\L	8b-\	.
8D\J 8F	8r	.
8BB-/	8b-\ 8dd 8bb-	.
8r	8r	.
!!LO:LB:g=original	!	!
=9:|!|:	=9:|!|:	=9:|!|:
8C\L	8ccT\L	p
8G\J 8B- 8c	8g\J	.
8C\L	8eent\L	.
8G\J 8B- 8c	8cc\J	.
=10	=10	=10
8F\L	8ccT\L	.
8A\J 8c	8a\J	.
8F\L	8ffT\L	.
8A\J 8c	8cc\J	.
=11	=11	=11
8C\L	8ggT\L	.
8G\J 8B- 8c	8cc\J	.
8C\L	8bb-T\L	.
8G\J 8B- 8c	8een\J	.
=12	=12	=12
8F\L	(8ff\L	f
8A\J 8c	16ee-\L	.
.	16dd\JJ)	.
8F\L	8cc'\L	.
8A\J 8c	8cc'\J	.
=13	=13	=13
8C\L	8ccT\L	p
8G\J 8B- 8c	8g\J	.
8C\L	8eent\L	.
8G\J 8B- 8c	8cc\J	.
=14	=14	=14
8F\L	8ccT\L	.
8A\J 8c	8a\J	.
8F\L	8ffT\L	.
8A\J 8c	8cc\J	.
=15	=15	=15
8C\L	8ggT\L	.
8En\J 8B- 8c	8cc\J	.
8C\L	8ggT\L	.
8E\J 8B- 8c	8cc\J	.
=16	=16	=16
8F\ 8A 8c	(16ff\LL	<
.	16een\	.
8r	16ff\	.
.	16gg\JJ	.
(16F\LL	16ff\LL	.
16E-X\	16ee-X\	.
16D\	16dd\	.
16C\JJ)	16cc\JJ)	[[
!!LO:LB:g=original	!	!
=17	=17	=17
8BBB-/ 8BB-	8b-|\ 8dd	f
8BB-\L 8D 8F	4dd|\ 4ff	.
8BB-\ 8D 8F	.	.
8BB-\J 8D 8F	(16cc\LL 16ee-	.
.	16b-\JJ) 16dd	.
=18	=18	=18
.	((16qqb-/ 16qqdd	.
*^	*	*
4FF/	8FF\L	8a\L)) 8cc	.
.	8C\J 8F	8g#X'\J 8bn	.
4FF/	8FF\L	4a'\ 4cc	.
.	8C\J 8F	.	.
=19	=19	=19	=19
!	!LO:N:vis=2	!	!
2FF/	8FF\L	8cc|\ 8ee-	.
.	8C\ 8F	4ee-|\ 4gg	.
.	8C\ 8F	.	.
.	8C\J 8F	(16dd\LL 16ff	.
.	.	16cc\JJ) 16ee-	.
=20	=20	=20	=20
.	.	((8qcc/ 8qee-	.
4BB-/	8BB-\L	8b-\L)) 8dd	.
.	8D\J 8F	8a'\J 8cc	.
4BB-/	8BB-\L	4b-'\ 4dd	.
.	8D\J 8F	.	.
*v	*v	*	*
=21	=21	=21
8BBB-/ 8BB-	8b-|\ 8dd	.
8BB-\L 8D 8F	4dd|\ 4ff	.
8BB-\ 8D 8F	.	.
8BB-\J 8D 8F	(16cc\LL 16ee-	.
.	16b-\JJ) 16dd	.
=22	=22	=22
.	((8qb-/ 8qdd	.
*^	*	*
4FF/	8FF\L	8a\L)) 8cc	.
.	8C\J 8E- 8F	8g#X'\J 8bn	.
4FF/	8FF\L	4a'\ 4cc	.
.	8C\J 8E- 8F	.	.
=23	=23	=23	=23
*	*	*^	*
!	!LO:N:vis=2	!	!	!
2FF/	8FF\L	8cc'/L	8a\	.
.	8C\ 8E- 8F	(8gg/	4a\	.
.	8C\ 8E- 8F	8ff/)	.	.
.	8C\J 8E- 8F	8a'/J	8a\	.
*v	*v	*	*	*
*	*v	*v	*
=24	=24	=24
8BB-\ 8D 8F	8b-\	.
8r	8r	.
8BB-\ 8D 8F	8b-\ 8dd 8bb-	.
8r	8r	.
!!LO:LB:g=original	!	!
=25:|!	=25:|!	=25:|!
*k[b-e-a-]	*k[b-e-a-]	*
*M2/4	*M2/4	*
*^	*	*
!	!	!LO:TX:a:B:t=TRIO.	!
!	!LO:N:vis=2	!LO:TX:b:i:t=dolce	!
2E-/	8E-\L	(16b-\LL	.
.	.	16g\	.
.	8G\ 8B-	16b-\	.
.	.	16ee-\JJ	.
.	8G\ 8B-	8gg\L)	.
.	8G\J 8B-	8bb-'\J	.
=26	=26	=26	=26
!	!LO:N:vis=2	!	!
2BB-/	8BB-\L	(16ccc\LL	.
.	.	16bb-\	.
.	8F\ 8A- 8B-	16aa-\	.
.	.	16ff\JJ	.
.	8F\ 8A- 8B-	8dd\)	.
.	8F\J 8A- 8B-	8r	.
=27	=27	=27	=27
!	!LO:N:vis=2	!	!
2BB-/	8BB-\L	(16a-/LL	.
.	.	16f/	.
.	8F\ 8A- 8B-	16a-/	.
.	.	16b-/JJ	.
.	8F\ 8A- 8B-	8dd\L)	.
.	8F\J 8A- 8B-	8ff'\J	.
=28	=28	=28	=28
!	!LO:N:vis=2	!	!
2E-/	8E-\L	(16aa-\LL	.
.	.	16gg\	.
.	8E-\ 8G	16ee-\	.
.	.	16b-\JJ	.
.	8E-\ 8G	8g/)	.
.	8E-\J 8G	8r	.
=29	=29	=29	=29
!	!LO:N:vis=2	!	!
2E-/	8E-\L	(16b-\LL	.
.	.	16g\	.
.	8E-\ 8G	16b-\	.
.	.	16ee-\JJ	.
.	8E-\ 8G	8gg\L)	.
.	8E-\J 8G	8bb-'\J	.
=30	=30	=30	=30
!	!LO:N:vis=2	!	!
2AA-/	8AA-\L	(16ddd\LL	.
.	.	16ccc\	.
.	8C\ 8F 8A-	16aa-\	.
.	.	16ff\JJ	.
.	8C\ 8F 8A-	8cc\)	.
.	8C\J 8F 8A-	8r	.
=31	=31	=31	=31
4BB-/	8BB-\L	8b-|\L	.
.	8E-\J 8G	(16gg\L	.
.	.	16ee-\JJ)	.
4BB-/	8BB-\L	(16ee-\LL	.
.	.	16dd\	.
.	8F\J 8A-	16cc\	.
.	.	16dd\JJ)	.
*v	*v	*	*
!!LO:LB:g=original	!	!
=32	=32	=32
8E-\ 8G	8ee-\	.
8r	8r	.
8EE-/ 8E-	8ee-^<\ 8gg 8eee-	.
8r	8r	.
=33:|!|:	=33:|!|:	=33:|!|:
8GG\ 8G	16gg\LL	ff
.	16g\JJ	.
4GG\ 4G	4gg^<\	.
8FF\ 8F	8bn\ 8bbn	.
=34	=34	=34
8.EE-'/L 8.E-	8.cc'\L 8.ccc	.
16DD'/K 16D	16dd'\K 16ddd	.
8CC'/ 8C	8ee-'\ 8eee-	.
8BBBn'/J 8BBn	8dd'\J 8ddd	.
=35	=35	=35
8CC'/ 8C	8ee-'\L 8eee-	.
8BB-X'\L 8B-X	8cc'\ 8een	.
8AAn'\ 8An	8cc'\ 8ff	.
8AA-X'\J 8A-X	8cc'\J 8ff#X	.
=36	=36	=36
8GG\ 8G	8bn\ 8gg	.
8r	8r	.
4GG\ 4D 4G	4g\ 4b 4dd 4gg	.
=37	=37	=37
*^	*	*
4BB-/	16BB-\LL	16dd'^<\LL 16ff	f
.	16F\J 16A- 16B-	16cc'\J 16ee-	.
.	8F\J 8A- 8B-	8b-X'\J 8dd	.
4BB-/	8BB-\L	(16ff\LL	p
.	.	16aa-\J)	.
.	8F\J 8A- 8B-	8dd'\J	.
=38	=38	=38	=38
4E-/	16E-\LL	16ee-'^<\LL 16gg	f
.	16G\J 16B-	16b-'\J 16ff	.
.	8G\J 8B-	8g'\J 8ee-	.
4ryy	8E-\L	(16ee-\LL	p
.	.	16gg\J)	.
.	8G\J 8B-	8b-'\J	.
*v	*v	*	*
=39	=39	=39
16AA-\LL 16A-	16a-'^<\LL 16cc	f
16GG\J 16G	16b-'\J 16cc 16een	.
8FF\J 8F	8a-'\J 8cc 8ff	.
8BB-\L 8B-	8b-'\L	p
8BB-\J 8A- 8B-	8f'\J 8dd	.
=40	=40	=40
16E-\LL 16G 16B-	16g'\LL 16ee-	.
16E-\J 16G 16B-	16g'\J 16b-	.
8E-\J 8G 8B-	8g'\J 8gg	.
8E-\ 8G 8B-	8g^<\ 8b- 8ee-	.
!	!LO:TX:b:B:i:t=D&colon;C&colon;\nPolka	!
8r	8r	.
=:|!	=:|!	=:|!
*-	*-	*-
!!!system-decoration: {(s1,s2)}
!!!RDF**kern: > = above
!!!RDF**kern: < = below
!!!RDF**kern: | = vertical stroke
!!!ENC: Andrzej Gręziak
!!!END: 2022-07-22
!!!ENC: Natalia Wrzos
!!!END: 2022-08-16
